lib/flags/bb-barbados.svg

<svg xmlns="http://www.w3.org/2000/svg" fill="none" aria-hidden="true" viewBox="0 0 42 30"><g id="Country=BB - Barbados, Size=sm (36x24)" filter="url(#filter0_dd_91_29669)"><g clip-path="url(#clip0_91_29669)"><g id="flag"><mask id="mask0_91_29669" width="36" height="24" x="3" y="2" maskUnits="userSpaceOnUse" style="mask-type:alpha"><rect id="mask" width="36" height="24" x="3" y="2" fill="white"/></mask><g mask="url(#mask0_91_29669)"><g id="contents"><path id="right" fill="#2E42A5" fill-rule="evenodd" d="M27.75 2H39V26H27.75V2Z" clip-rule="evenodd"/><path id="middle" fill="#FECA00" fill-rule="evenodd" d="M14.25 2H27.75V26H14.25V2Z" clip-rule="evenodd"/><path id="left" fill="#2E42A5" fill-rule="evenodd" d="M3 2H14.25V26H3V2Z" clip-rule="evenodd"/><path id="mark" fill="black" fill-rule="evenodd" d="M23.9385 17.6678C24.15 16.3783 25.6494 13.5754 25.6494 13.5754L26.3447 11.9308L23.5888 12.7257L24.241 13.0274L22.9647 16.2258L22.0007 16.0213V9.85257L22.7633 9.80307L20.8823 7.37158L19.0456 9.85257H19.9318V16.0213L18.8459 16.1827L18.0713 12.9479L18.5184 12.6148L15.52 12.1234L16.4152 13.5917C16.4152 13.5917 17.62 16.1083 18.0713 17.6678L19.9318 17.5404V19.9375H22.0007V17.5404L23.9385 17.6678Z" clip-rule="evenodd"/></g></g></g></g></g><defs><filter id="filter0_dd_91_29669" width="42" height="30" x="0" y="0" color-interpolation-filters="sRGB" filterUnits="userSpaceOnUse"><feFlood flood-opacity="0" result="BackgroundImageFix"/><feColorMatrix in="SourceAlpha" result="hardAlpha" values="0 0 0 0 0 0 0 0 0 0 0 0 0 0 0 0 0 0 127 0"/><feOffset dy="1"/><feGaussianBlur stdDeviation="1"/><feColorMatrix values="0 0 0 0 0.0627451 0 0 0 0 0.0941176 0 0 0 0 0.156863 0 0 0 0.06 0"/><feBlend in2="BackgroundImageFix" result="effect1_dropShadow_91_29669"/><feColorMatrix in="SourceAlpha" result="hardAlpha" values="0 0 0 0 0 0 0 0 0 0 0 0 0 0 0 0 0 0 127 0"/><feOffset dy="1"/><feGaussianBlur stdDeviation="1.5"/><feColorMatrix values="0 0 0 0 0.0627451 0 0 0 0 0.0941176 0 0 0 0 0.156863 0 0 0 0.1 0"/><feBlend in2="effect1_dropShadow_91_29669" result="effect2_dropShadow_91_29669"/><feBlend in="SourceGraphic" in2="effect2_dropShadow_91_29669" result="shape"/></filter><clipPath id="clip0_91_29669"><rect width="36" height="24" x="3" y="2" fill="white" rx="2"/></clipPath></defs></svg>

<svg xmlns="http://www.w3.org/2000/svg" fill="none" aria-hidden="true" viewBox="0 0 42 30"><g filter="url(#a)"><g clip-path="url(#b)"><mask id="c" width="36" height="24" x="3" y="2" maskUnits="userSpaceOnUse" style="mask-type:alpha"><path fill="#fff" d="M3 2h36v24H3z"/></mask><g fill-rule="evenodd" clip-rule="evenodd" mask="url(#c)"><path fill="#2E42A5" d="M27.75 2H39v24H27.75V2Z"/><path fill="#FECA00" d="M14.25 2h13.5v24h-13.5V2Z"/><path fill="#2E42A5" d="M3 2h11.25v24H3V2Z"/><path fill="#000" d="M23.939 17.668c.211-1.29 1.71-4.093 1.71-4.093l.696-1.644-2.756.795.652.301-1.276 3.199L22 16.02V9.853l.762-.05-1.88-2.431-1.837 2.48h.886v6.17l-1.086.16-.775-3.234.447-.333-2.998-.492.895 1.469s1.205 2.516 1.656 4.076l1.86-.128v2.398H22V17.54l1.938.128Z"/></g></g></g><defs><clipPath id="b"><rect width="36" height="24" x="3" y="2" fill="#fff" rx="2"/></clipPath><filter id="a" width="42" height="30" x="0" y="0" color-interpolation-filters="sRGB" filterUnits="userSpaceOnUse"><feFlood flood-opacity="0" result="BackgroundImageFix"/><feColorMatrix in="SourceAlpha" result="hardAlpha" values="0 0 0 0 0 0 0 0 0 0 0 0 0 0 0 0 0 0 127 0"/><feOffset dy="1"/><feGaussianBlur stdDeviation="1"/><feColorMatrix values="0 0 0 0 0.0627451 0 0 0 0 0.0941176 0 0 0 0 0.156863 0 0 0 0.06 0"/><feBlend in2="BackgroundImageFix" result="effect1_dropShadow_91_29669"/><feColorMatrix in="SourceAlpha" result="hardAlpha" values="0 0 0 0 0 0 0 0 0 0 0 0 0 0 0 0 0 0 127 0"/><feOffset dy="1"/><feGaussianBlur stdDeviation="1.5"/><feColorMatrix values="0 0 0 0 0.0627451 0 0 0 0 0.0941176 0 0 0 0 0.156863 0 0 0 0.1 0"/><feBlend in2="effect1_dropShadow_91_29669" result="effect2_dropShadow_91_29669"/><feBlend in="SourceGraphic" in2="effect2_dropShadow_91_29669" result="shape"/></filter></defs></svg>
